svg/building/miyajima_torii_line.svg

<?xml version="1.0" encoding="UTF-8"?>
<svg width="24px" height="24px" viewBox="0 0 24 24" version="1.1" xmlns="http://www.w3.org/2000/svg" xmlns:xlink="http://www.w3.org/1999/xlink">
    <title>miyajima_torii_line</title>
    <g id="页面-1" stroke="none" stroke-width="1" fill="none" fill-rule="evenodd">
        <g id="Building" transform="translate(-96.000000, -192.000000)">
            <g id="miyajima_torii_line" transform="translate(96.000000, 192.000000)">
                 <path d="M24,0 L24,24 L0,24 L0,0 L24,0 Z M12.5934901,23.257841 L12.5819402,23.2595131 L12.5108777,23.2950439 L12.4918791,23.2987469 L12.4918791,23.2987469 L12.4767152,23.2950439 L12.4056548,23.2595131 C12.3958229,23.2563662 12.3870493,23.2590235 12.3821421,23.2649074 L12.3780323,23.275831 L12.360941,23.7031097 L12.3658947,23.7234994 L12.3769048,23.7357139 L12.4804777,23.8096931 L12.4953491,23.8136134 L12.4953491,23.8136134 L12.5071152,23.8096931 L12.6106902,23.7357139 L12.6232938,23.7196733 L12.6232938,23.7196733 L12.6266527,23.7031097 L12.609561,23.275831 C12.6075724,23.2657013 12.6010112,23.2592993 12.5934901,23.257841 L12.5934901,23.257841 Z M12.8583906,23.1452862 L12.8445485,23.1473072 L12.6598443,23.2396597 L12.6498822,23.2499052 L12.6498822,23.2499052 L12.6471943,23.2611114 L12.6650943,23.6906389 L12.6699349,23.7034178 L12.6699349,23.7034178 L12.678386,23.7104931 L12.8793402,23.8032389 C12.8914285,23.8068999 12.9022333,23.8029875 12.9078286,23.7952264 L12.9118235,23.7811639 L12.8776777,23.1665331 C12.8752882,23.1545897 12.8674102,23.1470016 12.8583906,23.1452862 L12.8583906,23.1452862 Z M12.1430473,23.1473072 C12.1332178,23.1423925 12.1221763,23.1452606 12.1156365,23.1525954 L12.1099173,23.1665331 L12.0757714,23.7811639 C12.0751323,23.7926639 12.0828099,23.8018602 12.0926481,23.8045676 L12.108256,23.8032389 L12.3092106,23.7104931 L12.3186497,23.7024347 L12.3186497,23.7024347 L12.3225043,23.6906389 L12.340401,23.2611114 L12.337245,23.2485176 L12.337245,23.2485176 L12.3277531,23.2396597 L12.1430473,23.1473072 Z" id="MingCute" fill-rule="nonzero"></path>
                <path d="M21.7778,3.37151 C22.0241,3.67627 22.0697,4.09679 21.8944,4.44725 L19.8944,8.44725 C19.7437,8.74869 19.4513,8.95393 19.1166,8.99322 C18.0795,9.11153 17.0404,9.21325 16.0000015,9.29887 L16.0000015,10.6647 C17.2714,10.4896 18.5395,10.2798 19.7965,10.021 C20.3373,9.90892 20.867,10.2563 20.9792,10.797 C21.0913,11.3378 20.7439,11.8671 20.2031,11.9793 C19.8031,12.0611 19.4018,12.1367 19.0000015,12.2094 L19.0000015,18.0001 C19.5523,18.0001 20.0000015,18.4478 20.0000015,19.0001 C20.0000015,19.5524 19.5523,20.0001 19.0000015,20.0001 L14.0000015,20.0001 C13.4477,20.0001 13.0000015,19.5524 13.0000015,19.0001 C13.0000015,18.4478 13.4477,18.0001 14.0000015,18.0001 L14.0000015,12.9045 C13.3077,12.9635 12.6263,13.0001 12.0000015,13.0001 C11.3737,13.0001 10.6923,12.9635 10.0000015,12.9045 L10.0000015,18.0001 C10.5523,18.0001 11.0000015,18.4478 11.0000015,19.0001 C11.0000015,19.5524 10.5523,20.0001 10.0000015,20.0001 L5.00003,20.0001 C4.44774,20.0001 4.00003,19.5524 4.00003,19.0001 C4.00003,18.4478 4.44773,18.0001 5.0000015,18.0001 L5.0000015,12.2094 C4.59831,12.1367 4.19693,12.0617 3.79709,11.9793 C3.25632,11.8672 2.90868,11.3378 3.02084,10.797 C3.133,10.2563 3.66227,9.90883 4.20302,10.0209 C5.46063,10.278 6.72838,10.4895 8.0000015,10.6647 L8.0000015,9.29887 C6.96001,9.21328 5.92127,9.1116 4.88449,8.99335 C4.55226,8.95432 4.25526,8.74661 4.10558,8.44725 L2.10558,4.44725 C1.93035,4.09679 1.97595,3.67627 2.22223,3.37151 C2.4685,3.06676 2.87005,2.93391 3.24947,3.03166 L3.718755,3.14863375 L3.718755,3.14863375 L4.67075313,3.37325203 L4.67075313,3.37325203 L5.52685281,3.56432291 L5.52685281,3.56432291 L6.1687375,3.70067967 L6.1687375,3.70067967 L6.50641,3.76992 C6.77097571,3.82347 7.04187959,3.87662041 7.31622368,3.92839254 L8.14667861,4.07859539 C9.53831135,4.3187798 10.9435004,4.50004 12.0000015,4.50004 C13.0565004,4.50004 14.4617246,4.3187798 15.8533557,4.07859539 L16.6838047,3.92839254 L16.6838047,3.92839254 L17.4936,3.76992 L17.4936,3.76992 L18.4731744,3.56432291 L18.4731744,3.56432291 L19.3292766,3.37325203 L19.3292766,3.37325203 L19.8109,3.26119 L19.8109,3.26119 C20.1245,3.18713 20.4378,3.11176 20.7499,3.03182 C21.1294,2.93404 21.5315,3.06674 21.7778,3.37151 Z M17,18.0001 L17,12.5412 L16.3407481,12.6367037 C16.2282556,12.6523444 16.1146,12.6678 16,12.683 L16,18.0001 L17,18.0001 Z M7,12.5412 L7,18.0001 L8,18.0001 L8,12.683 L7.32548593,12.5892963 L7.32548593,12.5892963 L7,12.5412 Z M14,10.8968 L14,9.43782 L13.1730672,9.47607696 C12.765636,9.4912704 12.3702,9.50004 12,9.50004 C11.6298,9.50004 11.234364,9.4912704 10.8269328,9.47607696 L10,9.43782 L10,10.8968 C10.7029,10.9605 11.3868,11.0001 12,11.0001 C12.49056,11.0001 13.026368,10.974756 13.5809536,10.932004 L14,10.8968 Z M18.3488,7.06636 L19.1503,5.46347 L17.9751759,5.71947866 C16.0083194,6.13865111 14.0026667,6.50004 12,6.50004 C9.99736667,6.50004 7.9917125,6.13865111 6.02487199,5.71947866 L4.84976,5.46347 L5.6512,7.06636 C7.75764,7.2915 9.88033,7.50004 12,7.50004 C13.8168857,7.50004 15.6359755,7.34682694 17.4451155,7.16127265 L18.3488,7.06636 Z" id="形状" fill="#09244B"></path>
            </g>
        </g>
    </g>
</svg>

<svg xmlns="http://www.w3.org/2000/svg" width="24" height="24"><g fill="none" fill-rule="evenodd"><path d="M24 0v24H0V0h24ZM12.593 23.258l-.011.002-.071.035-.02.004-.014-.004-.071-.035c-.01-.004-.019-.001-.024.005l-.004.01-.017.428.005.02.01.013.104.074.015.004.012-.004.104-.074.012-.016.004-.017-.017-.427c-.002-.01-.009-.017-.017-.018Zm.265-.113-.013.002-.185.093-.01.01-.003.011.018.43.005.012.008.007.201.093c.012.004.023 0 .029-.008l.004-.014-.034-.614c-.003-.012-.01-.02-.02-.022Zm-.715.002a.023.023 0 0 0-.027.006l-.006.014-.034.614c0 .012.007.02.017.024l.015-.002.201-.093.01-.008.004-.011.017-.43-.003-.012-.01-.01-.184-.092Z"/><path fill="#09244B" d="M21.778 3.372a1 1 0 0 1 .116 1.075l-2 4a1 1 0 0 1-.777.546c-1.038.119-2.077.22-3.117.306v1.366a58.212 58.212 0 0 0 3.797-.644 1 1 0 0 1 .406 1.958c-.4.082-.801.158-1.203.23V18a1 1 0 1 1 0 2h-5a1 1 0 1 1 0-2v-5.095c-.692.059-1.374.095-2 .095-.626 0-1.308-.037-2-.095V18a1 1 0 1 1 0 2H5a1 1 0 0 1 0-2v-5.79a50.632 50.632 0 0 1-1.203-.23 1 1 0 0 1 .406-1.96c1.258.258 2.525.47 3.797.645V9.299a99.544 99.544 0 0 1-3.116-.306 1.008 1.008 0 0 1-.778-.546l-2-4a1 1 0 0 1 1.143-1.415l.47.117.952.224.856.191.642.137.337.069c.265.053.536.107.81.158l.83.15c1.392.24 2.798.422 3.854.422 1.057 0 2.462-.181 3.853-.421l.83-.15.81-.16.98-.205.856-.19.482-.113c.314-.074.627-.15.939-.23a1 1 0 0 1 1.028.34ZM17 18v-5.459l-.66.096-.34.046V18h1ZM7 12.541v5.46h1v-5.318l-.675-.094L7 12.541Zm7-1.644v-1.46l-.827.04c-.407.014-.803.023-1.173.023s-.766-.009-1.173-.024L10 9.438v1.459c.703.063 1.387.103 2 .103.49 0 1.026-.025 1.581-.068l.419-.035Zm4.349-3.83.801-1.604-1.175.256c-1.967.42-3.972.781-5.975.781-2.003 0-4.008-.361-5.975-.78L4.85 5.462l.801 1.603c2.107.226 4.23.434 6.349.434 1.817 0 3.636-.153 5.445-.339l.904-.095Z"/></g></svg>
